X:263
T:score63
L:1/8
Q:1/4=96
M:2/4
I:linebreak $
K:Amin
 (A/B/c/B/ .A) z | (A/B/c/d/ .e) z | (d/e/f/g/ .a) z | (a/b/c'/d'/ .e') z |$ z .e (ef | %5
 .d) z !>!d2- | (dg de | .c) z e2 |] %8
